X:1
T:Corning, 97.97.77.97
T:Corning, 97.97.77.97
T:A. B. Woolverton, 1890
T:Public Domain Courtesy of the Cyber Hymnal™
C:A. B. Woolverton, 1890
Z:Public Domain
Z:Courtesy of the Cyber Hymnal™
%%score ( 1 2 ) 3
L:1/8
Q:1/4=100
M:4/4
K:G
V:1 treble 
V:2 treble 
V:3 bass 
V:1
 [Gd][Ge] | [Gd]2 [GB]2 [DA]2 [DG]2 | [EA]2 ([EG][CE]) [B,D]2 [B,D][B,D] | %3
 [DG]2 [DG]2 [GB]2 [GB]2 | [FA]6 [Gd][Ge] | [Gd]2 [GB]2 [DA]2 [DG]2 | %6
 [EA]2 ([EG][CE]) [B,D]2 [B,D][B,D] | [DG]2 [DG]2 [GB]2 [FA]2 | G6 [DF][EG] | %9
 [FA]3- [FA]2 [FA] [GB]>[DA] | [B,G]6 [FA][GB] | [Ac]2- [Ac]3 [Ac] [Bd]>[Ac] | [GB]6 [Gd][Ge] | %13
 [Gd]2 [GB]2 [DA]2 [DG]2 | [EA]2 ([EG][CE]) [B,D]2 [B,D][B,D] | [DG]2 [DG]2 [GB]2 [FA]2 | G6 |] %17
V:2
 x2 | x8 | x8 | x8 | x8 | x8 | x8 | x8 | G6 x2 | x8 | x8 | x8 | x8 | x8 | x8 | x8 | G6 |] %17
V:3
 [G,B,][G,C] | [G,B,]2 [G,D]2 [G,C]2 [G,B,]2 | [C,C]2 [C,G,]2 [G,,G,]2 [G,,G,][G,,G,] | %3
 [G,,B,]2 [G,,B,]2 [G,D]2 [G,D]2 | [D,D]6 [G,B,][G,C] | [G,B,]2 [G,D]2 [G,C]2 [G,B,]2 | %6
 [C,C]2 [C,G,]2 [G,,G,]2 [G,,G,][G,,G,] | [G,,B,]2 [B,,D]2 [D,D]2 [D,C]2 | [G,,B,]6 z2 | %9
 z2 [D,D]>[D,D] [D,D]2 z2 | z [G,D] [G,D]>[G,D] [G,D]2 z2 | z2 [D,D]>[D,D] [D,D]2 z2 | %12
 z2 [G,D][G,D]>[G,D][G,D] [G,B,][A,C] | [G,B,]2 [G,D]2 [G,C]2 [G,B,]2 | %14
 [C,C]2 [C,G,]2 [G,,G,]2 [G,,G,][G,,G,] | [G,,B,]2 [B,,D]2 [D,D]2 [D,C]2 | [G,,B,]6 |] %17

